Newaita-dark/.DP/32/mintupdate-error.svg

<?xml version="1.0" encoding="UTF-8"?>
<svg xmlns="http://www.w3.org/2000/svg" xmlns:xlink="http://www.w3.org/1999/xlink" width="32px" height="32px" viewBox="0 0 32 32" version="1.1">
<g id="surface1">
<path style=" stroke:none;fill-rule:nonzero;fill:rgb(93.725491%,32.549021%,31.37255%);fill-opacity:1;" d="M 15.875 4.21875 C 14.644531 4.21875 13.8125 7.925781 12.675781 8.394531 C 11.535156 8.867188 8.328125 6.835938 7.457031 7.707031 C 6.585938 8.578125 8.617188 11.785156 8.144531 12.925781 C 7.675781 14.0625 3.96875 14.894531 3.96875 16.125 C 3.96875 17.359375 7.675781 18.191406 8.144531 19.328125 C 8.617188 20.464844 6.585938 23.675781 7.457031 24.546875 C 8.328125 25.417969 11.535156 23.386719 12.675781 23.855469 C 13.8125 24.328125 14.644531 28.035156 15.875 28.035156 C 17.109375 28.035156 17.941406 24.328125 19.078125 23.855469 C 20.214844 23.386719 23.425781 25.417969 24.296875 24.546875 C 25.167969 23.675781 23.136719 20.464844 23.605469 19.328125 C 24.078125 18.191406 27.785156 17.359375 27.785156 16.125 C 27.785156 14.894531 24.078125 14.0625 23.605469 12.925781 C 23.136719 11.785156 25.167969 8.578125 24.296875 7.707031 C 23.425781 6.835938 20.214844 8.867188 19.078125 8.394531 C 17.941406 7.925781 17.109375 4.21875 15.875 4.21875 Z M 12.132812 11.058594 C 12.472656 11.058594 12.8125 11.191406 13.070312 11.449219 L 15.875 14.253906 L 18.683594 11.449219 C 19.203125 10.929688 20.035156 10.929688 20.554688 11.449219 C 21.074219 11.96875 21.074219 12.800781 20.554688 13.320312 L 17.746094 16.125 L 20.554688 18.933594 C 21.074219 19.453125 21.074219 20.285156 20.554688 20.804688 C 20.035156 21.324219 19.203125 21.324219 18.683594 20.804688 L 15.875 17.996094 L 13.070312 20.804688 C 12.550781 21.324219 11.71875 21.324219 11.199219 20.804688 C 10.679688 20.285156 10.679688 19.453125 11.199219 18.933594 L 14.003906 16.125 L 11.199219 13.320312 C 10.679688 12.800781 10.679688 11.96875 11.199219 11.449219 C 11.457031 11.191406 11.796875 11.058594 12.132812 11.058594 Z M 12.132812 11.058594 "/>
</g>
</svg>

<svg xmlns="http://www.w3.org/2000/svg" width="32pt" height="32pt" viewBox="0 0 32 32"><path d="M15.875 4.219c-1.934 0-1.441 3.367-3.23 4.11-1.786.737-3.82-1.99-5.188-.622-1.367 1.367 1.36 3.402.621 5.188-.742 1.789-4.11 1.296-4.11 3.23s3.368 1.445 4.11 3.23c.738 1.79-1.988 3.825-.621 5.192s3.402-1.36 5.188-.621c1.789.742 1.296 4.11 3.23 4.11s1.445-3.368 3.23-4.11c1.79-.738 3.825 1.988 5.192.62 1.367-1.366-1.36-3.401-.621-5.19.742-1.786 4.11-1.297 4.11-3.231s-3.368-1.441-4.11-3.23c-.738-1.786 1.988-3.82.62-5.188-1.366-1.367-3.401 1.36-5.19.621-1.786-.742-1.297-4.11-3.231-4.11zm-3.742 6.84c.34 0 .68.132.937.39l2.805 2.805 2.809-2.805c.52-.52 1.351-.52 1.87 0 .52.52.52 1.352 0 1.871l-2.808 2.805 2.809 2.809c.52.52.52 1.351 0 1.87-.52.52-1.352.52-1.871 0l-2.809-2.808-2.805 2.809c-.52.52-1.351.52-1.87 0a1.318 1.318 0 0 1 0-1.871l2.804-2.809-2.805-2.805a1.318 1.318 0 0 1 0-1.87c.258-.259.598-.391.934-.391zm0 0" fill="#ef5350"/></svg>
